sands/images/pice.svg

<svg width="62" height="62" viewBox="0 0 62 62" fill="none" xmlns="http://www.w3.org/2000/svg">
<path d="M60.5978 37.0093H54.5189C53.9593 37.0093 53.5057 37.4629 53.5057 38.0224H50.4663C49.9067 38.0224 49.4531 38.4761 49.4531 39.0356V39.2179L45.3488 40.0386L34.9782 39.0356C34.7284 39.0116 34.4785 39.0813 34.2771 39.2311L32.1586 40.8106L29.7524 39.2058C29.5604 39.076 29.3298 39.0159 29.0989 39.0356L18.084 40.0376L12.9797 39.1906V39.0356C12.9797 38.4761 12.5261 38.0224 11.9666 38.0224H8.9271C8.9271 37.4629 8.47346 37.0093 7.91395 37.0093H1.83505C1.27554 37.0093 0.821899 37.4629 0.821899 38.0224V56.2591C0.821899 56.8186 1.27554 57.2723 1.83505 57.2723H7.91395C8.47346 57.2723 8.9271 56.8186 8.9271 56.2591H11.9666C12.5261 56.2591 12.9797 55.8055 12.9797 55.246H16.8378L31.8527 61.2529C32.0576 61.3343 32.2832 61.347 32.496 61.2894L43.6407 58.25C44.1732 58.1103 44.4918 57.5653 44.3521 57.0328C44.3495 57.0228 44.3467 57.0128 44.3438 57.0028L49.5109 55.5519C49.64 55.9715 50.0273 56.2581 50.4663 56.2591H53.5057C53.5057 56.8186 53.9593 57.2723 54.5189 57.2723H60.5978C61.1573 57.2723 61.6109 56.8186 61.6109 56.2591V38.0224C61.6109 37.4629 61.1573 37.0093 60.5978 37.0093ZM6.9008 55.246H2.8482V39.0356H6.9008V55.246ZM10.9534 54.2328H8.9271V40.0487H10.9534V54.2328ZM32.2903 59.2449L17.4092 53.2916C17.2893 53.2441 17.1614 53.2197 17.0323 53.2197H12.9797V41.2442L17.8783 42.0608C17.9636 42.0748 18.0504 42.0782 18.1366 42.071L28.9257 41.0902L30.4322 42.0943L27.6967 44.1277C26.0992 45.1802 25.6574 47.3286 26.71 48.9261C27.3525 49.9011 28.4429 50.487 29.6106 50.4842C30.3181 50.4829 31.0093 50.2713 31.5963 49.8763L32.186 49.4325L41.2111 56.8164L32.2903 59.2449ZM49.445 53.4649L42.6447 55.3726L33.8506 48.1722L35.4909 46.9381L34.2751 45.3171L30.4251 48.2178C29.7616 48.6609 28.8645 48.4823 28.4212 47.8187C28.2353 47.5405 28.1519 47.2063 28.1851 46.8733C28.2325 46.4251 28.4827 46.0235 28.8639 45.7832L35.1728 41.0943L45.2992 42.075C45.3981 42.0838 45.4976 42.0783 45.595 42.0588L49.445 41.2888V53.4649ZM53.5057 54.2328H51.4794V40.0487H53.5057V54.2328ZM59.5846 55.246H55.532V39.0356H59.5846V55.246Z" fill="white"/>
<path d="M16.4242 56.3397L15.6257 58.2021L22.7176 61.243L23.5161 59.3806L16.4242 56.3397Z" fill="white"/>
<path d="M24.1247 14.7197H15.0063V8.64078C15.0063 8.08127 14.5527 7.62763 13.9932 7.62763H10.9537V3.57503C10.9537 3.01552 10.5001 2.56188 9.94059 2.56188H8.92744V0.535583H6.90114V2.56188H5.88799C5.32847 2.56188 4.87484 3.01552 4.87484 3.57503V7.62763H1.83539C1.27587 7.62763 0.822235 8.08127 0.822235 8.64078V33.9695C0.822235 34.529 1.27587 34.9827 1.83539 34.9827H24.1247C24.6842 34.9827 25.1378 34.529 25.1378 33.9695V15.7328C25.1378 15.1733 24.6842 14.7197 24.1247 14.7197ZM6.90114 4.58818H8.92744V7.62763H6.90114V4.58818ZM12.98 32.9564H2.84854V9.65393H12.98V32.9564ZM23.1115 18.7723H21.0852V20.7986H23.1115V22.8249H21.0852V24.8512H23.1115V32.9564H15.0063V16.746H23.1115V18.7723Z" fill="white"/>
<path d="M6.90081 15.733H4.87451V17.7593H6.90081V15.733Z" fill="white"/>
<path d="M10.9535 15.733H8.92722V17.7593H10.9535V15.733Z" fill="white"/>
<path d="M6.90081 19.7856H4.87451V21.8119H6.90081V19.7856Z" fill="white"/>
<path d="M10.9535 19.7856H8.92722V21.8119H10.9535V19.7856Z" fill="white"/>
<path d="M6.90081 23.8383H4.87451V25.8646H6.90081V23.8383Z" fill="white"/>
<path d="M19.0588 18.7725H17.0325V20.7988H19.0588V18.7725Z" fill="white"/>
<path d="M19.0588 22.825H17.0325V24.8513H19.0588V22.825Z" fill="white"/>
<path d="M6.90081 11.6806H4.87451V13.7069H6.90081V11.6806Z" fill="white"/>
<path d="M10.9535 11.6806H8.92722V13.7069H10.9535V11.6806Z" fill="white"/>
<path d="M44.3874 0.535767V2.05549C44.3874 2.89476 43.7069 3.57522 42.8677 3.57522C40.9093 3.57522 39.3217 5.16282 39.3217 7.12124V8.64097H41.348V7.12124C41.348 6.28197 42.0284 5.60152 42.8677 5.60152C44.8261 5.60152 46.4137 4.01391 46.4137 2.05549V0.535767H44.3874Z" fill="white"/>
<path d="M61.2575 23.0692L54.1654 16.9903C53.7406 16.6261 53.1011 16.6751 52.7367 17.0998C52.5793 17.2835 52.4927 17.5174 52.4927 17.7593V19.898L49.0997 16.9903C48.6749 16.6261 48.0353 16.6751 47.671 17.0998C47.5136 17.2835 47.4269 17.5174 47.4269 17.7593V22.825H45.4006V12.6935H46.4138V10.6672H45.6823C46.0413 10.0424 46.7062 9.65622 47.4269 9.65406C50.2232 9.65077 52.4894 7.38461 52.4927 4.58831V2.56201H50.4664V4.58831C50.4664 6.26697 49.1056 7.62776 47.4269 7.62776C45.5847 7.63473 43.9788 8.88331 43.5182 10.6672H38.3086V12.6935H39.3217V22.825H38.3086C37.7491 22.825 37.2954 23.2787 37.2954 23.8382V33.9697C37.2954 34.5292 37.7491 34.9828 38.3086 34.9828H60.5979C61.1574 34.9828 61.611 34.5292 61.611 33.9697V23.8382C61.611 23.5426 61.4819 23.2617 61.2575 23.0692ZM41.348 12.6935H43.3743V22.825H41.348V12.6935ZM59.5847 32.9565H39.3217V24.8513H48.4401C48.9996 24.8513 49.4532 24.3977 49.4532 23.8382V19.9619L52.8463 22.8706C53.271 23.2348 53.9106 23.1858 54.275 22.7611C54.4325 22.5774 54.519 22.3435 54.519 22.1016V19.9619L59.5847 24.3042V32.9565Z" fill="white"/>
<path d="M53.5056 28.9042H51.4793V30.9305H53.5056V28.9042Z" fill="white"/>
<path d="M57.5583 28.9042H55.532V30.9305H57.5583V28.9042Z" fill="white"/>
<path d="M53.5056 24.8514H51.4793V26.8777H53.5056V24.8514Z" fill="white"/>
<path d="M57.5583 24.8514H55.532V26.8777H57.5583V24.8514Z" fill="white"/>
<path d="M43.3742 26.8778H41.3479V28.9041H43.3742V26.8778Z" fill="white"/>
<path d="M47.4268 26.8778H45.4005V28.9041H47.4268V26.8778Z" fill="white"/>
<path d="M32.2296 25.8646V23.8383H30.2033V25.8646H28.177V27.8909H30.2033V29.9172H32.2296V27.8909H34.2559V25.8646H32.2296Z" fill="white"/>
</svg>

<svg width="62" height="62" fill="none" xmlns="http://www.w3.org/2000/svg"><path d="M60.598 37.01h-6.08c-.559 0-1.012.453-1.012 1.012h-3.04c-.56 0-1.013.454-1.013 1.014v.182l-4.104.82-10.37-1.002c-.25-.024-.5.045-.702.195l-2.118 1.58-2.407-1.605a1.013 1.013 0 00-.653-.17l-11.015 1.002-5.104-.847v-.155c0-.56-.454-1.014-1.013-1.014h-3.04c0-.56-.454-1.013-1.013-1.013H1.835c-.56 0-1.013.454-1.013 1.013V56.26c0 .56.454 1.013 1.013 1.013h6.079c.56 0 1.013-.453 1.013-1.013h3.04c.56 0 1.013-.453 1.013-1.013h3.858l15.015 6.007c.205.081.43.094.643.036l11.145-3.039a.997.997 0 00.703-1.247l5.167-1.451a1 1 0 00.955.707h3.04c0 .56.453 1.013 1.013 1.013h6.079c.56 0 1.013-.453 1.013-1.013V38.022c0-.56-.454-1.013-1.013-1.013zM6.9 55.245H2.848v-16.21h4.053v16.21zm4.052-1.013H8.927V40.049h2.026v14.184zm21.337 5.012l-14.88-5.953a1.023 1.023 0 00-.378-.072H12.98V41.244l4.898.817c.086.014.172.017.259.01l10.789-.98 1.506 1.003-2.735 2.034a3.464 3.464 0 001.914 6.356 3.569 3.569 0 001.985-.608l.59-.444 9.025 7.384-8.92 2.429zm17.155-5.78l-6.8 1.908-8.794-7.2 1.64-1.235-1.216-1.62-3.85 2.9a1.445 1.445 0 01-2.24-1.345c.048-.448.298-.85.679-1.09l6.309-4.689 10.126.981c.1.009.199.003.296-.016l3.85-.77v12.176zm4.06.768H51.48V40.049h2.027v14.184zm6.08 1.013h-4.053v-16.21h4.053v16.21z" fill="#fff"/><path d="M16.424 56.34l-.798 1.862 7.092 3.041.798-1.862-7.092-3.041zm7.701-41.62h-9.119V8.64c0-.559-.453-1.012-1.013-1.012h-3.04V3.575c0-.56-.453-1.013-1.012-1.013H8.927V.536H6.901v2.026H5.888c-.56 0-1.013.454-1.013 1.013v4.053h-3.04c-.56 0-1.013.453-1.013 1.013v25.328c0 .56.454 1.014 1.013 1.014h22.29c.56 0 1.013-.454 1.013-1.014V15.733c0-.56-.454-1.013-1.013-1.013zM6.9 4.588h2.026v3.04H6.901v-3.04zm6.079 28.368H2.849V9.654H12.98v23.302zM23.11 18.772h-2.026V20.8h2.026v2.026h-2.026v2.026h2.026v8.105h-8.105v-16.21h8.105v2.026z" fill="#fff"/><path d="M6.9 15.733H4.876v2.026H6.9v-2.026zm4.054 0H8.927v2.026h2.027v-2.026zM6.9 19.786H4.876v2.026H6.9v-2.026zm4.054 0H8.927v2.026h2.027v-2.026zM6.9 23.838H4.876v2.027H6.9v-2.027zm12.159-5.065h-2.027v2.026h2.027v-2.026zm0 4.052h-2.027v2.026h2.027v-2.026zM6.9 11.68H4.876v2.027H6.9V11.68zm4.054 0H8.927v2.027h2.027V11.68zM44.387.536v1.52c0 .839-.68 1.52-1.52 1.52a3.546 3.546 0 00-3.545 3.545v1.52h2.026v-1.52c0-.839.68-1.52 1.52-1.52a3.546 3.546 0 003.546-3.546V.535h-2.027z" fill="#fff"/><path d="M61.258 23.07l-7.093-6.08a1.013 1.013 0 00-1.672.77v2.138L49.1 16.99a1.013 1.013 0 00-1.673.77v5.065H45.4V12.694h1.013v-2.027h-.732a2.02 2.02 0 011.745-1.013 5.072 5.072 0 005.066-5.066V2.562h-2.027v2.026a3.04 3.04 0 01-3.04 3.04 4.053 4.053 0 00-3.908 3.04h-5.21v2.026h1.014v10.131h-1.013c-.56 0-1.014.454-1.014 1.013V33.97c0 .56.454 1.013 1.014 1.013h22.289c.56 0 1.013-.454 1.013-1.013V23.838c0-.295-.13-.576-.353-.769zm-19.91-10.377h2.026v10.132h-2.026V12.694zm18.237 20.264H39.322V24.85h9.118c.56 0 1.013-.453 1.013-1.013v-3.876l3.393 2.909a1.013 1.013 0 001.673-.77v-2.14l5.066 4.343v8.652z" fill="#fff"/><path d="M53.506 28.904h-2.027v2.026h2.027v-2.026zm4.052 0h-2.026v2.026h2.026v-2.026zm-4.052-4.053h-2.027v2.027h2.027V24.85zm4.052 0h-2.026v2.027h2.026V24.85zm-14.184 2.027h-2.026v2.026h2.026v-2.026zm4.053 0H45.4v2.026h2.026v-2.026zM32.23 25.865v-2.027h-2.027v2.027h-2.026v2.026h2.026v2.026h2.027v-2.026h2.026v-2.026H32.23z" fill="#fff"/></svg>
